src/normal/z_chart.svg

<svg xmlns="http://www.w3.org/2000/svg" width="24" height="24"><path d="M3.916 3.647C1.627 5.293.129 7.972.129 11a9 9 0 00.574 3.145L9.189 11 3.916 3.647zm-2.348 7.101a7.055 7.055 0 011.971-5.027l4.197 4.659-5.951 1.985a7.068 7.068 0 01-.217-1.617zM13.312 1.5c-2.528 0-4.97.911-6.878 2.566l.025.028-.399.349 6.374 7.311L3.16 14.7l.136.427-.01.003c.028.093.065.181.097.271l.08.253.009-.003a10.445 10.445 0 009.84 6.85c5.79 0 10.5-4.711 10.5-10.5S19.102 1.5 13.312 1.5zm7.792 7.114l-6.328 2.317 4.131-5.315a8.541 8.541 0 012.197 2.998zM8.117 5.281A8.5 8.5 0 0113.312 3.5c1.784 0 3.439.555 4.808 1.498l-4.83 6.215-5.173-5.932zm-2.719 9.758l7.275-2.312-1.343 7.515a8.41 8.41 0 01-5.932-5.203zm7.914 5.461c-.339 0-.667-.041-.997-.08l1.438-8.049 7.696-2.818c.233.776.362 1.597.362 2.447.001 4.688-3.813 8.5-8.499 8.5z"/></svg>

<?xml version="1.0" encoding="UTF-8" standalone="no"?>
<!DOCTYPE svg PUBLIC "-//W3C//DTD SVG 1.1//EN" "http://www.w3.org/Graphics/SVG/1.1/DTD/svg11.dtd">
<svg width="100%" height="100%" viewBox="0 0 24 24" version="1.1" xmlns="http://www.w3.org/2000/svg" xmlns:xlink="http://www.w3.org/1999/xlink" xml:space="preserve" xmlns:serif="http://www.serif.com/" style="fill-rule:evenodd;clip-rule:evenodd;stroke-linejoin:round;stroke-miterlimit:2;">
    <g transform="matrix(1.01339,0,0,1.01339,-0.130727,-0.0200777)">
        <path d="M3.916,3.647C1.627,5.293 0.129,7.972 0.129,11C0.131,12.074 0.326,13.139 0.703,14.145L9.189,11L3.916,3.647ZM1.568,10.748C1.532,8.878 2.242,7.068 3.539,5.721L7.736,10.38L1.785,12.365C1.65,11.836 1.578,11.294 1.568,10.748ZM13.312,1.5C10.784,1.5 8.342,2.411 6.434,4.066L6.459,4.094L6.06,4.443L12.434,11.754L3.16,14.7L3.296,15.127L3.286,15.13C3.314,15.223 3.351,15.311 3.383,15.401L3.463,15.654L3.472,15.651C4.981,19.767 8.928,22.515 13.312,22.501C19.102,22.501 23.812,17.79 23.812,12.001C23.812,6.212 19.102,1.5 13.312,1.5ZM21.104,8.614L14.776,10.931L18.907,5.616C19.85,6.442 20.601,7.466 21.104,8.614ZM8.117,5.281C9.604,4.129 11.431,3.502 13.312,3.5C15.096,3.5 16.751,4.055 18.12,4.998L13.29,11.213L8.117,5.281ZM5.398,15.039L12.673,12.727L11.33,20.242C8.614,19.601 6.388,17.648 5.398,15.039ZM13.312,20.5C12.973,20.5 12.645,20.459 12.315,20.42L13.753,12.371L21.449,9.553C21.682,10.329 21.811,11.15 21.811,12C21.812,16.688 17.998,20.5 13.312,20.5Z" style="fill-rule:nonzero;"/>
    </g>
</svg>
